icons/ie-line.svg

<svg xmlns="http://www.w3.org/2000/svg" width="24" height="24" fill="none"><g clip-path="url(#a)"><g><path fill="#121212" d="M18.159 9.99996C17.7456 8.82923 16.9793 7.81553 15.9657 7.09852C14.9521 6.3815 13.7411 5.99647 12.4995 5.99647C11.2579 5.99647 10.0469 6.3815 9.03333 7.09852C8.01973 7.81553 7.25343 8.82923 6.84002 9.99996H18.16H18.159ZM6.58302 13C6.78867 14.2117 7.36136 15.3311 8.2237 16.2068C9.08604 17.0826 10.1964 17.6725 11.4049 17.8968C12.6133 18.1212 13.8614 17.9691 14.9806 17.4613C16.0998 16.9534 17.0361 16.1141 17.663 15.057H20.967C20.5398 16.2402 19.8693 17.3208 18.9988 18.229C18.1283 19.1373 17.0771 19.853 15.913 20.33C14.7489 20.807 13.4978 21.0348 12.2402 20.9986C10.9827 20.9624 9.74675 20.6631 8.61202 20.12C5.86802 21.611 3.49902 21.92 2.19002 20.611C0.84602 19.271 1.56202 15.76 3.50302 12.238C4.21922 10.9406 5.05591 9.71354 6.00202 8.57296C6.36102 8.13996 6.73702 7.72096 7.12702 7.32096C6.85202 7.37596 5.24702 8.17196 3.71502 10.035C4.18808 7.92421 5.40521 6.05431 7.14377 4.76728C8.88233 3.48025 11.0261 2.86212 13.183 3.02596C16.278 1.62396 19.157 1.29996 20.375 2.51596C21.5 3.63896 21.437 5.51096 20.5 7.75796C20.49 7.77896 20.482 7.80096 20.473 7.82196C21.1496 9.11054 21.5021 10.5445 21.5 12C21.5 12.338 21.481 12.672 21.445 13H6.58302ZM8.00502 19.799C6.16403 18.7352 4.75745 17.056 4.03302 15.057C2.87202 17.339 2.57302 19.247 3.56402 20.237C4.37702 21.049 6.00202 20.861 8.00202 19.801L8.00502 19.799ZM20.172 7.29196C20.177 7.28061 20.182 7.26928 20.187 7.25796C20.937 5.63596 21 4.26396 20.312 3.45196C19.443 2.58396 17.772 2.70196 15.79 3.61996C17.6098 4.33718 19.1475 5.62576 20.172 7.29196Z"/></g></g><defs><clipPath id="a"><rect width="24" height="24" fill="white"/></clipPath></defs></svg>

<svg width="24" height="24" fill="none" xmlns="http://www.w3.org/2000/svg"><g clip-path="url(#a)"><path d="M18.159 10A6.002 6.002 0 0 0 6.84 10h11.32-.001ZM6.583 13a6.002 6.002 0 0 0 11.08 2.057h3.304A9.002 9.002 0 0 1 8.612 20.12c-2.744 1.491-5.113 1.8-6.422.491-1.344-1.34-.628-4.851 1.313-8.373a23.62 23.62 0 0 1 2.499-3.665c.359-.433.735-.852 1.125-1.252-.275.055-1.88.851-3.412 2.714a9.004 9.004 0 0 1 9.468-7.009c3.095-1.402 5.974-1.726 7.192-.51 1.125 1.123 1.062 2.995.125 5.242-.01.021-.018.043-.027.064A8.96 8.96 0 0 1 21.445 13H6.583Zm1.422 6.799a9.03 9.03 0 0 1-3.972-4.742c-1.161 2.282-1.46 4.19-.469 5.18.813.812 2.438.624 4.438-.436l.003-.002ZM20.172 7.292l.015-.034c.75-1.622.813-2.994.125-3.806-.869-.868-2.54-.75-4.522.168a9.032 9.032 0 0 1 4.382 3.672Z" /></g><defs><clipPath id="a"><path fill="#fff" d="M0 0h24v24H0z"/></clipPath></defs></svg>
